X: 63
T: String Quartet No. 15 in A Minor, Op. 132 mvt 1
C: Ludwig van Beethoven
%%abc-version 2.0
%%abcx-abcm2ps-target-version 5.9.1 (29 Sep 2008)
%%abc-creator hum2abc beta
%%abcx-conversion-date 2021/01/27 10:01:16
%%abc-edited-by Don Anthony
%%abcx-initial-encoding-date 2006/08//
%%gracespace 0 6 6
%%humdrum-veritas 2013392282
%%humdrum-veritas-data 2893531545
%%linebreak <none>
%%barnumbers 0
L: 1/16
M: 2/2
N: Derived from quartet15-1.krn
Q: "Assai sostenuto" 1/2=54
%%staves [1 2 3 4]
V: 1 clef=treble
V: 2 clef=treble
V: 3 clef=alto
V: 4 clef=bass
K: C
[V:1] z16 | 
[V:2] z16 | 
[V:3] z16 | 
[V:4] G,,8A,,8 | 
[V:1] z16 | 
[V:2] z8B,8 | 
[V:3] A,8^G,8 | 
[V:4] F,8E,8 | 
[V:1] ^D8E8 | 
[V:2] A,8[^G,8D8] | 
[V:3] C8B,8 | 
[V:4] z16 | 
[V:1] c8B8 | 
[V:2] [A,8^F8]^G8 | 
[V:3] ^D,8E,8 | 
[V:4] z16 | 
[V:1] ^g8a8 | 
[V:2] D8C8 | 
[V:3] B8c8 | 
[V:4] F,8E,8 | 
[V:1] b8c'8 | 
[V:2] =F8[E8c8] | 
[V:3] D8C8 | 
[V:4] ^G,,8A,,8 | 
[V:1] c'8b8 | 
[V:2] A8^G8 | 
[V:3] ^F,8^G,8 | 
[V:4] ^D,,8E,,8 | 
[V:1] ^d8e4f4 | 
[V:2] F4^F4^G4.[D4d4] | 
[V:3] A,8^G,4[G,4B,4] | 
[V:4] C,8B,,4B,,4 | 
[V:1] [M:C][M:4/4]fe=df dcBd BA^GB FEDF | 
[V:2] [M:C][M:4/4].[D4d4]z4z8 | 
[V:3] [M:C][M:4/4].[^G,4B,4]z4z8 | 
[V:4] [M:C][M:4/4].B,,4z4z8 | 
[V:1] DCB,D B,A,^G,B, D^GBd f2e2 | 
[V:2] z8z4.[E4A4] | 
[V:3] z8z4.E,4 | 
[V:4] z8z4.C,4 | 
[V:1] e16- | 
[V:2] z16 | 
[V:3] z16 | 
[V:4] z4[K:clef=tenor]A2>B2c4B3A | 
[V:1] e8-e2^d2 (3=d2c2B2 | 
[V:2] z8z4^G,4 | 
[V:3] z8z4E,4 | 
[V:4] A4^G12 | 
[V:1] B4A2>B2c4B3A | 
[V:2] A,8^D8 | 
[V:3] F,16 | 
[V:4] z16 | 
[V:1] A4^G8F3E | 
[V:2] B,16 | 
[V:3] E,16 | 
[V:4] z16 | 
[V:1] E4F2>E2E4d3B | 
[V:2] [B,16=D16] | 
[V:3] E,16- | 
[V:4] [K:clef=bass]^G,,16 | 
[V:1] d4c8f3^d | 
[V:2] C12z4 | 
[V:3] E,4B,2>^G,2B,4A,4- | 
[V:4] A,,12B,,4 | 
[V:1] f4e8a3e | 
[V:2] z4_B2>^G2B4A4 | 
[V:3] A,4E8E4 | 
[V:4] C,4C8^C4 | 
[V:1] g4f4-f2>=d2 d3_B | 
[V:2] z4A2>E2=G4F4- | 
[V:3] z8z4[_B,4D4]- | 
[V:4] D8-D4D3_B, | 
[V:1] _B2>F2 F2>D2 D2>_B,2 B,3A, | 
[V:2] F4F2>D2 D2>_B,2 B,3A, | 
[V:3] [B,4D4]F,2>D,2 D,2>_B,2 B,3A, | 
[V:4] _B,2>F,2 F,2>D,2 D,2>_B,,2 B,,3A,, | 
[V:1] .^G,4.A,4.A4a2=b2 | 
[V:2] .^G,4.[^c4e4].d4.[^D4A4] | 
[V:3] .^G,4.=G,4.^F,4.[=F,4A,4] | 
[V:4] .^G,,4.=G,,4.^F,,4.=F,,4 | 
[V:1] c'4e4a4e2c2 | 
[V:2] [C16E16] | 
[V:3] A,16 | 
[V:4] E,,16 | 
[V:1] BA^GB FEDF DCB,D FGBd | 
[V:2] E4z4z8 | 
[V:3] ^G,4z4z8 | 
[V:4] E,4z4z8 | 
[V:1] f16 | 
[V:2] z4A,2>B,2C4B,3A, | 
[V:3] z16 | 
[V:4] z4A,,2>B,,2C,4B,,3A,, | 
[V:1] e16 | 
[V:2] A,4^G,12 | 
[V:3] z8z4F,3E, | 
[V:4] A,,4^G,,12 | 
[V:1] z16 | 
[V:2] ^G,16 | 
[V:3] E,4F,2>E,2E,4D3B, | 
[V:4] z16 | 
[V:1] z16 | 
[V:2] A,12A4- | 
[V:3] D4C8B,4 | 
[V:4] z8z4[K:clef=tenor]F3^D | 
[V:1] z8z4a3e | 
[V:2] A4_B2>^G2B4A4 | 
[V:3] C12^C4 | 
[V:4] F4E12 | 
[V:1] g4f4_b2>f2 f3d | 
[V:2] A8_B8 | 
[V:3] D12[_B,4D4] | 
[V:4] z4A2>E2 G2>F2 F3=D | 
[V:1] d2>_B2 B2>F2 F2>D2 D3_B, | 
[V:2] d2>_B2 B2>F2 F2>D2 D3_B, | 
[V:3] D2>_B,2 B,2>F,2 F,2>D,2 D,3B, | 
[V:4] [K:clef=bass]D,2>_B,,2 B,,2>F,,2 F,,2>D,,2 D,,3_D,, | 
[V:1] _B,16 | 
[V:2] _B,4z4z8 | 
[V:3] _D,4G,2>_A,2_B,4G,3F, | 
[V:4] _D,,16 | 
[V:1] _B,4G2>_A2_B4G3F | 
[V:2] z16 | 
[V:3] F,4E,12 | 
[V:4] C,,16 | 
[V:1] F4E8_B4 | 
[V:2] z4G2>_A2_B4G3F | 
[V:3] _B,4G,2>_A,2B,4G,3F, | 
[V:4] _D,,16 | 
[V:1] _b4g2>_a2b4g3f | 
[V:2] F4E8G4 | 
[V:3] F,4E,8E4 | 
[V:4] C,,12C4 | 
[V:1] f4e2>=B2B4c3_B | 
[V:2] z4G4z4G4 | 
[V:3] z4E4z4C4 | 
[V:4] z4C4z4E,4 | 
[V:1] _B4=A2>=a2a4g3f | 
[V:2] z4=A4z4F4 | 
[V:3] z4C4z4C4 | 
[V:4] z4F,4z4A,,4 | 
[V:1] (3f2e2f2 (3^f2g2=B2 (3d2c2B2 (3c2d2_B2 | 
[V:2] z4[C4E4]z4G4 | 
[V:3] z4G,4z4c4 | 
[V:4] z4C,4z4E4 | 
[V:1] _BA^GA B=Bc^c d^def =gagf | 
[V:2] z4c4z4c4 | 
[V:3] z4A4z4F4 | 
[V:4] z4F4z4A,4 | 
[V:1] fefd .d2.d2 d^cd_B ._b2.b2 | 
[V:2] FEFD .D2.D2 D^CD_B, .B,2._B2 | 
[V:3] D^CD_B, .B,2.B,2 B,A,B,G, .G,2.G,2 | 
[V:4] ._B,2._B,,2.B,2.G,,2 .G,2.G,,2.G,2.E,,2 | 
[V:1]  [K:F] babg .g2.g2 g^fge .e2.d'2 | 
[V:2]  [K:F] BABG .G2.G2 G^FGE .E2.G2 | 
[V:3]  [K:F] G,^F,G,E, .E,2.E,2 E,^D,E,C, .C,2.B,2 | 
[V:4]  [K:F] .C,2.C,,2.C,2.C,2 .C,2.C,,2.C,2.B,,2 | 
[V:1] .d'4.e'2 z E.A4.A4 | 
[V:2] .G4.E4z8 | 
[V:3] D4.^C4z8 | 
[V:4] .B,4A,12- | 
[V:1] A6G=F .F2.F2 FGF2 | 
[V:2] z4z2> =F2.=B4.B4 | 
[V:3] z8A,8- | 
[V:4] A,4>>A,4.D4.D4 | 
[V:1] F4E2 z e.a4.a4 | 
[V:2] B6AG .G2.G2 GAG2 | 
[V:3] A,4>>E4.^c4.c2 z A | 
[V:4] D4^C4.E2.E2 EFE2 | 
[V:1] a6gf .f2.f2 fgf2 | 
[V:2] G4F4.=B,2.=B2 BAB2 | 
[V:3] .d4.d4.d2.d2 d=cd2 | 
[V:4] E4D4.G,4.G,4 | 
[V:1] f2>^d2 e2>g2 g2>f2 f3^f | 
[V:2] c2G2 c2G2 c2F2 c2C2 | 
[V:3] G,2C,2 G2C2 F2C2 A2A,2 | 
[V:4] =C,2B,2 C,2B,2 C,2A,2 C,2A,2 | 
[V:1] ^f2>g2 g2>^g2 g2>a2 a3b | 
[V:2] c2G2 G2C2 F2C2 A2F2 | 
[V:3] G2C2 C2G,2 C2F,2 F2A,2 | 
[V:4] C,2E,2 C,2E,2 C,2F,2 _E,2F,2 | 
[V:1] b2>=b2 b2>c'2 c'2>^c'2 c'3d' | 
[V:2] B2F2c2F2 B2F2 F2B,2 | 
[V:3] F2D2 F2C2 F2B,2 B,2F,2 | 
[V:4] D,2F,2 A,,2F,2 B,,2F,2 B,,2F,2 | 
[V:1] d'2>e'2 e'2>f'2 f'2>f2 a3g | 
[V:2] F2D2G2D2 A2F2E2G,2 | 
[V:3] D2F,2 D2G,2 F2A,2 B,2E,2 | 
[V:4] B,,2F,2 =B,,2G,2 C,2A,2 C,2B,2 | 
[V:1] z16 | 
[V:2] z8z2 F2G2A2 | 
[V:3] (3z2 D,2C,2A,4(3z2 D,2C,2A,4 | 
[V:4] F,,4(3z2 D,2C,2F,,4(3z2 D,2C,2 | 
[V:1] z2 g2a2b2z8 | 
[V:2] B4>>A4.G4.G4 | 
[V:3] (3z2 D,2C,2C4(3z2 D,2C,2C4 | 
[V:4] E,,4(3z2 D,2C,2E,,4(3z2 D,2C,2 | 
[V:1] z2 g2a2b2z4a4 | 
[V:2] B4A2G2F4G2A2 | 
[V:3] (3z2 D,2C,2C4(3z2 D,2C,2A,4 | 
[V:4] F,,4(3z2 D,2C,2F,,4(3z2 D,2C,2 | 
[V:1] z16 | 
[V:2] G4>E4F6=B,2 | 
[V:3] (3z2 D,2C,2G,4(3z2 E,2D,2G,4 | 
[V:4] G,,4(3z2 D,2C,2G,,4(3z2 E,2D,2 | 
[V:1] z2 =B2c2e2 g2=b2c'2d'2 | 
[V:2] C4z4z8 | 
[V:3] (3z2 F,2E,2C4(3z2 A,2G,2E4 | 
[V:4] C,4(3z2 A,2G,2C,4(3z2 C,2B,,2 | 
[V:1] _e'4>>d'4.^c'4.c'4 | 
[V:2] z8F8 | 
[V:3] (3z2 G2F2c4(3z2 B,2A,2F4 | 
[V:4] A,,4(3z2 G,2F,2A,,4(3z2 G,2F,2 | 
[V:1] _e'4d'2=c'2b4c'2d'2 | 
[V:2] B,8d8 | 
[V:3] (3z2 C2B,2F4(3z2 C2B,2F4 | 
[V:4] B,,4(3z2 G,2F,2B,,4(3z2 G,2F,2 | 
[V:1] c'4>a4b6=e2 | 
[V:2] z2 GF EFGF z2 FE DEFE | 
[V:3] (3z2 B,2A,2F4(3z2 C2B,2[B,4G4] | 
[V:4] C,4(3z2 G,2F,2C,4(3z2 A,2G,2 | 
[V:1] z2 gf efgf egab c'^c'd'b | 
[V:2] (3z2 d2c2F4(3z2 d2c2G4 | 
[V:3] z4(3z2 D2C2G,4(3z2 D2C2 | 
[V:4] C,4>A,,4B,,6E,,2 | 
[V:1] a4g4f4c4 | 
[V:2] C4B,4A,4e4 | 
[V:3] A4B4c4E4 | 
[V:4] F,,2G,,F,, E,,2F,,G,, A,,2B,,A,, G,,2A,,B,, | 
[V:1] f2gf e2fg a2ba g2ab | 
[V:2] c4e4f4g4 | 
[V:3] C4B,4A,4E,4 | 
[V:4] A,,4G,,4F,,4C,,2C,2 | 
[V:1] c'4-c'2c'ba4-a2ag | 
[V:2] a2agf4-f2fed4- | 
[V:3] C,2A,B, C2DE F2FG AGFE | 
[V:4] F,,2F,,G,, A,,2B,,C, D,2D,E,F,4- | 
[V:1] f4-f2fe .d2d'c' bagf | 
[V:2] d2dcB4-B2DE FGAB | 
[V:3] DA,B,C DEDC B,2BA GFED | 
[V:4] F,2G,A,B,4-B,2B,,C, D,E,F,G, | 
[V:1] efga bagf efga bc'd'e' | 
[V:2] cdef gfed cdef gabc' | 
[V:3] CDEF GFED CDEF GABc | 
[V:4] B,A,G,F, E,F,G,A, B,A,G,F, E,D,C,B,, | 
[V:1] .f'4z4ga=bc' d'e'f'g' | 
[V:2] fedc BAGF=B8- | 
[V:3] FGAB cdefF8- | 
[V:4] A,,B,,C,D, E,F,G,A,D8- | 
[V:1] g'f'e'f' e'f'e'd' d'c'=bc' c'_bag | 
[V:2] =B4=B4c4e4 | 
[V:3] F4F4G4B4 | 
[V:4] D4D4E4G4 | 
[V:1] gfef efed dc=Bc c_BAG | 
[V:2] f4F8G4 & x4D4C4x4 | 
[V:3] c4G,4A,4G,4 | 
[V:4] A4=B,,4C,4E,4 | 
[V:1] A4=B4c4e4 | 
[V:2] C4G4G,4c4 | 
[V:3] F,4D4E4G4 | 
[V:4] G,F,E,F, E,F,E,D, D,C,=B,,C, C,_B,,A,,G,, | 
[V:1] gfef efga abc'^c' d'c'd'e | 
[V:2] c4=B,4CGFE FGAB | 
[V:3] F4F,4F,G,A,B, A,G,F,G, | 
[V:4] B,,A,,G,,A,,D,4C,B,,A,,G,, F,,E,,D,,C,, | 
[V:1] f2>e2 _d2>B2 G2>E2 d3c | 
[V:2] A2>G2 G,2>E2 B,2>_D2 E3F | 
[V:3] A,2>B,2 E,2>G,2 _D2>B,2 B,3C | 
[V:4] F,,2>G,,2 B,,2>D,2 E,2>G,2 G,3A, | 
[V:1] =d8c8 | 
[V:2] F8E8 | 
[V:3] _A,8G,8 | 
[V:4] =B,,8C,8 | 
[V:1] c2>_d2 e2>g2 b2>_d'2 e'3f' | 
[V:2] C2>_D2 E2>_d2 d2>b2 g3a | 
[V:3] A2>G2 B2>G2 B,2>G,2 B,3A, | 
[V:4] F,2>E,2 _D,2>B,,2 G,,2>E,,2 D,3C, | 
[V:1] =B8c8 | 
[V:2] F8A,8 | 
[V:3] _A,8F8 | 
[V:4] =D,8C,8 | 
[V:1] =d8-d2E2d2c2 | 
[V:2] F8E8 | 
[V:3] A,8G,8 | 
[V:4] =B,,8C,8 | 
[V:1] d8-d2C2B2G2 | 
[V:2] F8[G,8E8] | 
[V:3] A,8[C,8G,8] | 
[V:4] =B,,8[C,,8C,8] | 
[V:1] A2 z2 B2 z2 c2 z2 g2 z2 | 
[V:2] F2 z2 F2 z2 A2 z2 G2 z2 | 
[V:3] F,2 z2 F,2 z2 F2 z2 E2 z2 | 
[V:4] F,2 z2 D,2 z2 C,2 z2 C,2 z2 | 
[V:1] z4a4z8 | 
[V:2] z4_E4z8 | 
[V:3] z4C4z8 | 
[V:4] z4F,,12 | 
[V:1] z16 | 
[V:2] z16 | 
[V:3] z16 | 
[V:4] F,,16 | 
[V:1] A,16- | 
[V:2] z16 | 
[V:3] z16 | 
[V:4] ^F,,16 | 
[V:1] A,16- | 
[V:2] z16 | 
[V:3] F,16 | 
[V:4] _E,16 | 
[V:1] A,16- | 
[V:2] A16 | 
[V:3] ^F,16 | 
[V:4] D,16- | 
[V:1] A,4^F2>G2A4G3F | 
[V:2] c16 | 
[V:3] _E16 | 
[V:4] D,16 | 
[V:1] A4G4-G2G2^F2G2 | 
[V:2] B8B,8 | 
[V:3] D16 | 
[V:4] D,16 | 
[V:1] B4A2>B2c4B3A | 
[V:2] [C16_E16] | 
[V:3] ^F,16 | 
[V:4] D,16- | 
[V:1] c4B8_e3d | 
[V:2] [B,16D16] | 
[V:3] G,16 | 
[V:4] D,16 | 
[V:1] d4_e2>d2d4c'3a | 
[V:2] [C16D16] | 
[V:3] ^F,4A,2>B,2C4A,4 | 
[V:4] D,4^F,2>G,2A,4F,4 | 
[V:1] c'4=b8c'4 | 
[V:2] D4[G,8G8]_A3G | 
[V:3] _A,4=F,2>G,2A,4G,2_E,2 | 
[V:4] =F,4D,2>_E,2F,4E,2C,2 | 
[V:1] d'4d2>_e2=f4e3d | 
[V:2] d4G4D4G4 | 
[V:3] [D,16G,16] | 
[V:4] =B,,16 | 
[V:1] f4_e8d4 | 
[V:2] C4_A,2>G,2G,4_E3D | 
[V:3] [_E,12G,12]G4- | 
[V:4] C,12B,,4 | 
[V:1] c8^F8 | 
[V:2] D4C2>D2_E4D3C | 
[V:3] G4_E2>D2C4D3E | 
[V:4] _A,,8_A,8 | 
[V:1] G16 | 
[V:2] C4=B,12 | 
[V:3] _E4D2>E2F4E3D | 
[V:4] G,16- | 
[V:1] _e16 | 
[V:2] C8c8 | 
[V:3] F4_E2>F2G4F3E | 
[V:4] G,4C,2>D,2_E,4D,3C, | 
[V:1] _e'16 | 
[V:2] c'16 | 
[V:3] D2C2 C,2>D,2_E,4D,3C, | 
[V:4] B,,4_A,,2>B,,2C,4B,,3A,, | 
[V:1] ._e'4.d'4.d'4.d'4 | 
[V:2] .c'4.c'4.[d4c'4].[d4=b4] | 
[V:3] .F,4.^F,4.G,4.[G,4G4] | 
[V:4] ._A,,4.=A,,4.G,,4.G,,4 | 
[V:1]  [K:C] z16 | 
[V:2]  [K:C] z16 | 
[V:3]  [K:C] z8z2> D,2C,3D, | 
[V:4]  [K:C] z8z2> D,,2C,,3D,, | 
[V:1] z16 | 
[V:2] z16 | 
[V:3] F,4<=E,4-E,2F,2E,3F, | 
[V:4] F,,4<=E,,4-E,,2F,,2E,,3F,, | 
[V:1] z8z2> d2c3d | 
[V:2] z8z2> D2C3D | 
[V:3] A,4<G,4z8 | 
[V:4] A,,4<G,,4z8 | 
[V:1] f4<=e4-e2f2e2f2 | 
[V:2] F4<E4-E2F2E2F2 | 
[V:3] z2> C2B,2>C2 E,2D,6 | 
[V:4] z2> C,2B,,2>C,2 E,,2D,,6 | 
[V:1] a4<g4-g2a2g3a | 
[V:2] A4<G4-G2A2G3A | 
[V:3] z2> E2D2>E2 G,2F,6 | 
[V:4] z2> E,2D,2>E,2 G,,2F,,6 | 
[V:1] a2>e2 .e2.f2 g2>d2 .d2.e2 | 
[V:2] A2>c2 .c2.d2 e2>B2 .B2.=c2 | 
[V:3] F,2>_B,2 .B,2.A,2 G,2>_A,2 .A,2.G,2 | 
[V:4] F,,2>G,2 .G,2.F,2 E,2>F,2 .F,2.E,2 | 
[V:1] f2>A2 .A2.B2 .c2.d2.e2.f2 | 
[V:2] F2>C2 .C2.G2 .A2.B2.c2.d2 | 
[V:3] F,2>G2 .G2.F2 .E2.D2.C2.B,2 | 
[V:4] D,2>E2 .E2.D2 .C2.B,2.A,2.G,2 | 
[V:1] e16 | 
[V:2] C16 | 
[V:3] G,16 | 
[V:4] G,2>B,,2 C,2>D,2E,4D,3C, | 
[V:1] e'16 | 
[V:2] c16 | 
[V:3] C16 | 
[V:4] B,,4A,,2>B,,2C,4B,,3A,, | 
[V:1] g'16 | 
[V:2] [B16e16] | 
[V:3] B,2E,2 E,2>^F,2G,4F,3E, | 
[V:4] A,,2G,,2 G,,2>A,,2B,,4A,,3G,, | 
[V:1] .g'4.^f'4.f'4.f'4 | 
[V:2] .[c4e4].[^c4e4].[^F4e4].[F4^d4] | 
[V:3] .E,4.E,4.B,4.B,4 | 
[V:4] .A,,4.^A,,4.B,,4.B,,4 | 
[V:1] ^D16 | 
[V:2] ^D16 | 
[V:3] ^D,16 | 
[V:4] ^D,,16 | 
[V:1] E16 | 
[V:2] E16 | 
[V:3] E,16 | 
[V:4] E,,16 | 
[V:1] ^a16 | 
[V:2] e16 | 
[V:3] E16 | 
[V:4] C,16 | 
[V:1] b16- | 
[V:2] [^F16^d16] | 
[V:3] [B,16^F16] | 
[V:4] B,,16 | 
[V:1] b2^g2=a2b2c'4b3a | 
[V:2] B,16 | 
[V:3] ^F16- | 
[V:4] [K:clef=tenor]^D16 | 
[V:1] a4=g8^f3e | 
[V:2] B,16- | 
[V:3] F4G2>A2B4A3G | 
[V:4] E16 | 
[V:1] e2^d2e2>^f2g4f3e | 
[V:2] B,16 | 
[V:3] G4>^F4 E2B2A2G2 | 
[V:4] c16 | 
[V:1] e4^d12 | 
[V:2] B,16 | 
[V:3] G4^F8A3B | 
[V:4] B12^F3G | 
[V:1]  [K:G] ^d16 | 
[V:2]  [K:G] [A,4F4]F2>G2c4B3A | 
[V:3]  [K:G] c4C2>B,2A,4B,3C | 
[V:4]  [K:G] A4[K:clef=bass]A,2>G,2F,4G,3A, | 
[V:1] e16 | 
[V:2] G4G2>A2B8- | 
[V:3] C4B,8A,4 | 
[V:4] A,4G,8F,4 | 
[V:1] c'16 | 
[V:2] B4G2>A2B4A3G | 
[V:3] G,4G,2>A,2B,4A,3G, | 
[V:4] E,4E,,2>F,,2G,,4F,,3E,, | 
[V:1] b8-b8- | 
[V:2] G4F8E4 | 
[V:3] G,4F,8C4 | 
[V:4] E,,4^D,,8z4 | 
[V:1] b16- | 
[V:2] E4^D8z4 | 
[V:3] C4B,8G,4 | 
[V:4] z8z4E,4 | 
[V:1] b8-b8- | 
[V:2] z8F4=F4 | 
[V:3] G,4F,8=F,4 | 
[V:4] E,4^D,8=D,4 | 
[V:1] b12c'4 | 
[V:2] E4^D4B4c4 | 
[V:3] E,4^D,8C,4 | 
[V:4] C,4B,,8A,,4 | 
[V:1] .c'4.c'4.c'4.c'4 | 
[V:2] .c4.[^D4c4].[E4c4][F4c4] | 
[V:3] .B,4.A,4.G,4.F,4 | 
[V:4] .G,,4.F,,4.E,,4.^D,,4 | 
[V:1] c'bac' agfa fe^df cBAc | 
[V:2] .[A4c4]z4z8 | 
[V:3] ^D4z4z8 | 
[V:4] .F,4z4z8 | 
[V:1] AGFA ^DFAc (3^d2f2a2 c'2b2 | 
[V:2] z8z4.^d4 | 
[V:3] z8z4.[B,4A4] | 
[V:4] z8z4[K:clef=tenor].F4 | 
[V:1] b16- | 
[V:2] z16 | 
[V:3] z16 | 
[V:4] z4E2>F2G4F3E | 
[V:1] b8-b2^a2 (3=a2g2f2 | 
[V:2] z16 | 
[V:3] z16 | 
[V:4] E4^D12 | 
[V:1] f2^d2e2>f2g4f3e | 
[V:2] c16 | 
[V:3] z16 | 
[V:4] z16 | 
[V:1] e4^d8=dcB2 | 
[V:2] B16 | 
[V:3] z16 | 
[V:4] z16 | 
[V:1] B4d2cB B2^a2 b=af2 | 
[V:2] F16 | 
[V:3] ^D16 | 
[V:4] z16 | 
[V:1] a4g8d'2=c'^a | 
[V:2] G12A2^A2 | 
[V:3] E12F4 | 
[V:4] z4G2F^DF4E4 | 
[V:1] c'4b4-b2^d'2 =f'2e'b | 
[V:2] B12B4 | 
[V:3] G12-G2^G2 | 
[V:4] z4[K:clef=tenor]B2AF A2G4^G2 | 
[V:1] =d'4c'4-c'2>a2 a3=f | 
[V:2] c8-c8 | 
[V:3] A8-A8 | 
[V:4] z4A2E2=F8 | 
[V:1] =f2>c2 c2>A2 A2>=F2 F3E | 
[V:2] =F2>C2 C2>A,2 A2>F2 F3E | 
[V:3] =F2>C2 C2>A,2 A,2>=F,2 F,3E, | 
[V:4] [K:clef=bass]=F,2>C,2 C,2>A,,2 A,,2>=F,,2 F,,3E,, | 
[V:1] .^D4^d4.e4e'2f'2 | 
[V:2] .^D4.A4.G4[F4e4] | 
[V:3] .^D,4.C4.B,4.^A,4 | 
[V:4] .^D,,4.C,4.B,,4.^A,,4 | 
[V:1] g'2b2e'2g'4<b'4g2 | 
[V:2] [E8e8][G8e8] | 
[V:3] B,16 | 
[V:4] B,,16 | 
[V:1] f4z4z8 | 
[V:2] ^d16 | 
[V:3] B,12F,4 | 
[V:4] B,,12F,,4 | 
[V:1] =d'12^g4 | 
[V:2] =d12^G4 | 
[V:3] E,4z4z8 | 
[V:4] E,,4z4z8 | 
[V:1] =g4^C2>D2E4D3C | 
[V:2] =G16 | 
[V:3] [E,16G,16]- | 
[V:4] _B,,16 | 
[V:1] ^C4D12 | 
[V:2] z4d2>e2=f4e3d | 
[V:3] [E,4G,4]=F,12 | 
[V:4] A,,16 | 
[V:1] G4E2>=F2G4F3E | 
[V:2] d4^c2>d2e4d3c | 
[V:3] _B,16 | 
[V:4] A,,16- | 
[V:1] G2>=F2E4D4d4- | 
[V:2] e4d8D3E | 
[V:3] A,12=F,3G, | 
[V:4] A,,4D,2>E,2=F,4_B,,3A,, | 
[V:1]  [K:C] d2^c2d4-d2e2 _B3A | 
[V:2]  [K:C] E4D2>E2E4E3G | 
[V:3]  [K:C] G,4F,2>G,2G,4^C4 | 
[V:4]  [K:C] A,,4_B,,2>A,,2A,,4G,3E, | 
[V:1] A4_B2>A2A4g3e | 
[V:2] E4^c2>d2d4_B,3A, | 
[V:3] ^C4E2>F2F4z4 | 
[V:4] G,4F,8E,3^C, | 
[V:1] g4f8f4 | 
[V:2] A,4_B,2>A,2A,4[D4F4] | 
[V:3] z4^C2>D2D4A,3_A, | 
[V:4] E,4D,8A,,3_A,, | 
[V:1] f4d2>_e2f4d3c | 
[V:2] [D16d16] | 
[V:3] [_A,16F16] | 
[V:4] _A,,16 | 
[V:1] c4=B8=e3f | 
[V:2] [D4d4]D2>_E2F4D3C | 
[V:3] [G,16F16] | 
[V:4] G,,16 | 
[V:1] f4d2>_e2f4d3c | 
[V:2] C4=B,8B,3C | 
[V:3] [_A,16F16] | 
[V:4] _A,,16 | 
[V:1] c4B8=e3f | 
[V:2] [D4d4]D2>_E2F4D3C | 
[V:3] [G,16F16] | 
[V:4] G,,16 | 
[V:1] f2>d2.f4z4.d4 | 
[V:2] C4B,2>^F2F4G3=F | 
[V:3] z4.[=B,4D4]z4.[G,4D4] | 
[V:4] z4.G,4z4=B,,4 | 
[V:1] z4e2>e'2e'4d'3c' | 
[V:2] F4=E4z4G4 | 
[V:3] z4G,4z4G,4 | 
[V:4] z4C,4z4E,4 | 
[V:1] c'4b4z2 ^fg a^ga=f | 
[V:2] z2 Bc d^cd^FG4G4 | 
[V:3] z4[B,4D4]z4D4 | 
[V:4] z4G,4z4B,4 | 
[V:1] f^def ^f=g^ga _b=bc'^c' =d'e'd'=c' | 
[V:2] z4G4z4[G4=c4] | 
[V:3] z4E4z4C4 | 
[V:4] z4C4z4E,4 | 
[V:1] c'bc'A .a2.a2 a^ga=f .f2.f2 | 
[V:2] A^GA=F .F2.F2 FEFD .F2.F2 | 
[V:3] cBcA .A2.A2 A2D,2 D2D,2 | 
[V:4] F,2F,,2F,2F,,2 F,2D,2D2D,2 | 
[V:1] fef=d .d2.d2 d^cdB .B2.a2 | 
[V:2] FEFD .D2.D2 D^CDB, .B,2.A,2 | 
[V:3] D2dB .B2.B2 B2B,2 .d2.d2 | 
[V:4] D2B,,2G,2G,,2 G,2G,,2G,2F,2 | 
[V:1] .a4.b4z8 | 
[V:2] A4.^G2 z B.e4.e4 | 
[V:3] .D4E,8-E,3 E | 
[V:4] .F,4.E,4z8 | 
[V:1] z4z2> =c2.f4.f4 | 
[V:2] e6d=c .c2.c2 cdc2 | 
[V:3] .A4.A4.A2.A2 ABA2 | 
[V:4] z16 | 
[V:1] f6ed .d2.d2 ded2 | 
[V:2] c4B2.B2 .B2.B2 BcB2 | 
[V:3] A4^G4z4z3 E | 
[V:4] z4z2> B,,2.E,4.E,4 | 
[V:1] .c2.c2 cBc2 e'2d'c' c'd'c'2 | 
[V:2] .A2.=G2 GFE2 .[G2c2]G2G2^F2 | 
[V:3] .e4.e4e2dc cdc2 | 
[V:4] E,2C,2C,2C,2 A,,2A,2A,2A,2 | 
[V:1] c2>^A2 B2>d2 B2>c2 c3^c | 
[V:2] G2>D2 =F2>B,2 G2>G,2 G3E | 
[V:3] D2>G,2 D2>G,2 G,2>C,2 E3G, | 
[V:4] G,,2>F,2z4G,,2>E,2z4 | 
[V:1] ^c2>d2 d2>^d2 d2>e2 e3f | 
[V:2] G2>F2 G2>F2 G2>=C2 c3F | 
[V:3] F2>G,2 F2>G,2 C2>G,2 G3C | 
[V:4] G,,2>B,,2z4G,,2>C,2 _B,3A, | 
[V:1] f2>^f2 f2>g2 g2>^g2 g3=a | 
[V:2] c2>^F2 c2>E2 E2>_B2 B3A | 
[V:3] F2>C2 C2>E,2 E,2>_B,2 B,3A, | 
[V:4] A,2>_A,2 A,2>G,2 G,2>E,2 E,3F, | 
[V:1] a2>b2 b2>=c'2 c'2>c2 e3d | 
[V:2] A2>D2 D2>_E2 E2>=E2 E3F | 
[V:3] A,2>_A,2 A,2>=A,2 A,2>G,2 G,3B, | 
[V:4] F,2>F,,2 F,,2>^F,,2 F,,2>G,,2 G,,3G, | 
[V:1] z16 | 
[V:2] (3z2 A2G2C4(3z2 A2G2C4 | 
[V:3] C,4(3z2 A,2G,2C,4(3z2 A2G2 | 
[V:4] z8[K:clef=tenor]z2 C2D2E2 | 
[V:1] z8z2 d2e2f2 | 
[V:2] (3z2 A2G2B,4(3z2 A2G2B,4 | 
[V:3] [G,4D4](3z2 C2B,2G,4(3z2 C2B,2 | 
[V:4] F4>>E4.D4.D4 | 
[V:1] f4e2d2c4d2e2 | 
[V:2] (3z2 A2G2C4(3z2 A2G2C4 | 
[V:3] G,4(3z2 G,2F,2E,4(3z2 D,2C,2 | 
[V:4] F4E2D2C4D2E2 | 
[V:1] d4>B4c6^F2 | 
[V:2] (3z2 A2G2B,4(3z2 G2^F2C4 | 
[V:3] [D,4B,4](3z2 C2B,2[D,4A,4](3z2 D2C2 | 
[V:4] D4>G4^F6A2 | 
[V:1] z2 G2B2d2 g2g2a2_b2 | 
[V:2] (3z2 A2G2B,4(3z2 A2G2C4 | 
[V:3] [G,4B,4](3z2 G,2F,2E,4(3z2 D2C2 | 
[V:4] A2G2G2G2 G2G2A2_B2 | 
[V:1] _b4>>a4.^g4.g4 | 
[V:2] (3z2 A2G2C4(3z2 D2C2C4 | 
[V:3] E,4(3z2 D2C2E,4(3z2 D2C2 | 
[V:4] _B4>>A4.^G4.G4 | 
[V:1] _b4a2=g2=f4g2a2 | 
[V:2] (3z2 d2c2=F4(3z2 d2c2F4 | 
[V:3] F,4(3z2 D2C2[F,4A,4](3z2 D2C2 | 
[V:4] _B4A2=G2=F4G2A2 | 
[V:1] g4>e4f6=B2 | 
[V:2] (3z2 d2c2E4(3z2 c2B2F4 | 
[V:3] [G,4E4](3z2 D2C2G,4(3z2 E2D2 | 
[V:4] G4>E4F6=B,2 | 
[V:1] eBcd ef^fg agfg aga=f | 
[V:2] (3z2 d2c2E4(3z2 c2B2 D2fd | 
[V:3] G,4>E,4 F,2D,2F2B,2 | 
[V:4] [K:clef=bass]G,,4>E,,4 F,,2D,,2F,2B,,2 | 
[V:1] e4d4c4G4 | 
[V:2] c4F4E4F4 & x4G,12 | 
[V:3] C2DC B,2CD E2FE D2EF | 
[V:4] C,4z4C2DC B,2CD | 
[V:1] c2dc B2cd e2fe d2ef | 
[V:2] G,4G2AB c2dc B2cd | 
[V:3] G4F4E4D4 | 
[V:4] E4D4C4G,4 | 
[V:1] g4-g2gfe4-e2e'd' | 
[V:2] e2E2- EG,ED C2c2- cCcB | 
[V:3] [C,2C2]CD E2FG A2ABc4- | 
[V:4] z4C,4z4C,,4 | 
[V:1] c'4-c'2c'b abag fefd | 
[V:2] A2a2- aAag fgfe d^cdB | 
[V:3] cCDEF4-FDEF .G2.G,2 | 
[V:4] z4F,4z4G,,4 | 
[V:1] g16- | 
[V:2] e4d4=c4G4 | 
[V:3] G4F4E2DC B,2CD | 
[V:4] C,,2DC B,2CD[K:clef=tenor] E2FE D2EF | 
[V:1] g4g2abc'4b2c'd' | 
[V:2] c2dc B2cd e2fe d2ef | 
[V:3] G,4F,4E,4F,2E,D, | 
[V:4] E4D4C4G,3F, | 
[V:1] e'4-e'2e'd'c'4-c'2c'b | 
[V:2] g2G2- GG,GF E2e2- eEed | 
[V:3] C,2E,F, G,2A,B, C2CDE4- | 
[V:4] E,2[K:clef=bass]C,D, E,2F,G, A,2A,B,C4- | 
[V:1] a2c2- cCcB ABAG FEDC | 
[V:2] c2A2- AA,AG Fgfe dcBA | 
[V:3] E2FGA4-A2A,2A,2A,2 | 
[V:4] C2DEF4-F2F,,2F,2F,2 | 
[V:1] B,CDE FEDC B,CDE FGAB | 
[V:2] GABc dcBA GABc defg | 
[V:3] DCB,A, G,A,B,C DCB,A, G,F,E,D, | 
[V:4] F,E,D,C, B,,C,D,E, F,E,D,C, B,,A,,G,,F,, | 
[V:1] c4z4de^fg abc'd' | 
[V:2] g4z4c'bag ^fedc | 
[V:3] C,D,E,F, G,A,B,C^F,8- | 
[V:4] E,,F,,G,,A,, B,,C,D,E,A,,8- | 
[V:1] d'c'bc' bc'ba ag^fg g=fed | 
[V:2] c4[D4c4]D4[B,4G4] | 
[V:3] F,4^F,4G,4=F,4 | 
[V:4] A,,4A,,4B,,4D,4 | 
[V:1] dcBc BcBA AG^FG G=FED | 
[V:2] [C4G4]^f4g4b4 | 
[V:3] G,4^F4G4B4 | 
[V:4] E,4z4E,4D,4 & x8G,,8 | 
[V:1] C4^f4g4b4 | 
[V:2] d'c'bc' bc'ba ag^fg g=fed | 
[V:3] dcBc BcBA AG^FG G=FED | 
[V:4] D,C,B,,C, B,,C,B,,A,, A,,G,,^F,,G,, G,,=F,,E,,D,, | 
[V:1] bc'd'e' e=fga gabc' d'e'f'b | 
[V:2] fedc cBAG EFGA Bcdf | 
[V:3] FEDC CB,A,G, CB,A,G, F,E,D,D | 
[V:4] F,,E,,D,,C,, C,B,,A,,G,,G,4G,,4 | 
[V:1] c'2>b2 _a2>f2 d2>B2 a3g | 
[V:2] e2>F2 B2>D2 _A2>F2 d3e | 
[V:3] G,2>F,2 F,2>_A,2 F2>D2 F3E | 
[V:4] C,2>D,2 F,2>_A,2 B,2>D2 B,3C | 
[V:1] =A8G8 | 
[V:2] _E8B,8 | 
[V:3] C8D,8 | 
[V:4] ^F,,8G,,8 | 
[V:1] G2>_A2 B2>d2 f2>d'2 b3c' | 
[V:2] =E2>F2 D2>F2 F2>_A2 d3c | 
[V:3] E,2>D,2 F,2>D,2 _A,2>F,2 F,3E, | 
[V:4] C,2>B,,2 _A,,2>F,,2 D,,2>B,,2 _A,3G, | 
[V:1] ^f8g8 | 
[V:2] c8[C8=E8] | 
[V:3] _E8c8 | 
[V:4] =A,8G,8 | 
[V:1] =a8-a2B2a2g2 | 
[V:2] _E8B8 | 
[V:3] c8[F,8D8] | 
[V:4] ^F,8G,8 | 
[V:1] a8-a2G,2=F2D2 | 
[V:2] C8[F8B8] | 
[V:3] _E,8[D,8G,8] | 
[V:4] ^F,,8G,,8 | 
[V:1] E2 z2 ^F2 z2 G2 z2 B2 z2 | 
[V:2] C2 z2 C2 z2 C2 z2 D2 z2 | 
[V:3] [E,2G,2] z2 D,2 z2 E,2 z2 F,2 z2 | 
[V:4] C,2 z2 A,,2 z2 G,,2 z2 G,,2 z2 | 
[V:1] z4B4z8 | 
[V:2] z4D4z8 | 
[V:3] z4F,4z8 | 
[V:4] z4^G,,4z8 | 
[V:1] z4B2 z2 c2 z2 ^c2 z2 | 
[V:2] z4D2 z2 C2 z2 E2 z2 | 
[V:3] z4F,2 z2 E,2 z2 _B,2 z2 | 
[V:4] z4^G,,2 z2 A,,2 z2 G,2 z2 | 
[V:1] z4^c4z8 | 
[V:2] z4_B4z8 | 
[V:3] z4[G,4_B,4]z8 | 
[V:4] z4G4z8 | 
[V:1] ^c2 z2 d2 z2 ^d2 z2 e2 z2 | 
[V:2] E2 z2 A,2 z2 A2 z2 ^G2 z2 | 
[V:3] _B2 z2 A2 z2 A,2 z2 =B,2 z2 | 
[V:4] G,2 z2 ^F,2 z2 =F,2 z2 E,2 z2 | 
[V:1] f16 | 
[V:2] d16 | 
[V:3] B,16 | 
[V:4] ^G,,16 | 
[V:1] e16 | 
[V:2] c16- | 
[V:3] C16 | 
[V:4] A,,16 | 
[V:1] ^D16 | 
[V:2] c4A2>=B2c4B3A | 
[V:3] C8A,4B,4 | 
[V:4] F,16 | 
[V:1] E16 | 
[V:2] A4^G8^G,4 | 
[V:3] C4B,8E,4 | 
[V:4] E,16 | 
[V:1] z16 | 
[V:2] A,16 | 
[V:3] z4F,2>G,2A,4G,3F, | 
[V:4] ^D,16 | 
[V:1] z16 | 
[V:2] ^G,8c8- | 
[V:3] F,4E,8^G4 | 
[V:4] E,16 | 
[V:1] ^d16 | 
[V:2] c4A2>B2c4B3A | 
[V:3] A4c2>B2A4B3c | 
[V:4] F,16 | 
[V:1] e16 | 
[V:2] A4^G8G3B, | 
[V:3] c4B8B,3E, | 
[V:4] E,16 | 
[V:1] =d'4b2>c'2d'4c'3b | 
[V:2] B,4D2>C2B,4C3D | 
[V:3] F,4D,2>E,2F,4E,3D, | 
[V:4] ^G,,16 | 
[V:1] d'4c'8d'3e' | 
[V:2] B,4C2>D2E4D3C | 
[V:3] F,4E,4C4B,3A, | 
[V:4] A,,16 | 
[V:1] f'16 | 
[V:2] C4c2>B2A4B3c | 
[V:3] C,4C2>D2E4D3C | 
[V:4] A,,4A,2>B,2C4B,3A, | 
[V:1] e'16 | 
[V:2] z4d2>c2B4c3d | 
[V:3] C4B,8A,3^G, | 
[V:4] A,4^G,8F,3E, | 
[V:1] ^g16 | 
[V:2] d4[B,8D8]B3^G | 
[V:3] ^G,4A,2>G,2G,4F3D | 
[V:4] E,4F,2>E,2E,4D3B, | 
[V:1] a16- | 
[V:2] B4A8f3^d | 
[V:3] F4E8B4 | 
[V:4] D4C8z4 | 
[V:1] a4_b2>^g2b4a3e | 
[V:2] b4e8^C4 | 
[V:3] c12e4 | 
[V:4] z16 | 
[V:1] =g4f8_b3f | 
[V:2] =D16 | 
[V:3] z4A2>E2=G4F4 | 
[V:4] z16 | 
[V:1] a4g8c'3g | 
[V:2] E16 | 
[V:3] z8z4E,4 | 
[V:4] [K:clef=tenor]z4G2>B,2D4C4 | 
[V:1] _b4>>a4=b7a | 
[V:2] F8E8 | 
[V:3] F,8E,8 | 
[V:4] [K:clef=bass]z4C,2>F,,2z4C,3E,, | 
[V:1] b4>>a4b7a | 
[V:2] D8^D8 | 
[V:3] D,8^D,8 | 
[V:4] z4C,2>D,,2z4C,3^D,, | 
[V:1] baba baba baba baba | 
[V:2] .F4.E4.=D4.c4 | 
[V:3] .F,4.E,4.=D,4.[C,4C4] | 
[V:4] .F,,4.E,,4.=D,4.C,4 | 
[V:1] baba baba baba baba | 
[V:2] .B4.A4.=G4.F4 | 
[V:3] .B,4.A,4.=G,4.F,4 | 
[V:4] .B,,4.A,,4.=G,,4.F,,4 | 
[V:1] .b4z4z8 | 
[V:2] .^G,4z4z8 | 
[V:3] E,8-E,7^G, | 
[V:4] .E,,4z2>[K:clef=tenor] B,2.E4.E4 | 
[V:1] z16 | 
[V:2] z4z2> c2.f4.f4 | 
[V:3] C6B,A, .A,2.A,2 A,B,A,2 | 
[V:4] E6DC .C2.C2 CDC2 | 
[V:1] z4z2> b2.e'4.e'4 | 
[V:2] f6ed .d2.d2 ded2 | 
[V:3] A,4^G,4z4z3 E | 
[V:4] C4B,4.B,2.B,2 B,CB,2 | 
[V:1] e'6d'c' .c'2.c'2 c'd'c'2 | 
[V:2] d4c4e2e2e2e2 | 
[V:3] .A4.A4A2A2A2A2 | 
[V:4] [K:clef=bass]B,4A,4z8 | 
[V:1] c'2b2z4z4c'd'c'2 | 
[V:2] ^d2e2 c=dc2 c2B2 z2 ^d2 | 
[V:3] A2^G2 ABA2 A2G2 z2 A2 | 
[V:4] z4z2 .^D2 D2E2z4 | 
[V:1] c'2>b2 .b2.c'2 c'2>b2 .b2.c'2 | 
[V:2] ^d2>e2 .e2.d2 d2>e2 .e2.e2 | 
[V:3] A2>^G2 .G2.A2 A2>G2 .G2._B2 | 
[V:4] z8z4[K:clef=tenor]z2 .=G2 | 
[V:1] ^c'2>d'2 .d'2.c'2 c'2>d'2 .d'2.^d'2 | 
[V:2] e2>f2 .f2.e2 e2>f2 .f2c2 | 
[V:3] _B2>A2 .A2.B2 B2>A2 .A2.A2 | 
[V:4] G2>F2 .F2.G2 G2>F2 .F2.F2 | 
[V:1] ^d'2>e'2 e'2>f'2 f'2>^f'2 f'3g' | 
[V:2] c2>E2 _B2>A2 A2>_e2 A3=d | 
[V:3] A2>^G2 =G2>F2 F2>_E2 E3D | 
[V:4] F2>E2 ^C2>D2[K:clef=bass] D2>=C2 C3B, | 
[V:1] g'2>^g'2 g'2>a'2 a'2>a2 c'3b | 
[V:2] d2>=B2 D2>c2 A2>c2 C3[DE] | 
[V:3] =B,2>D2 B,2>A,2 C2>A2 A,3^G, | 
[V:4] F,2>E,2 E,2>^D,2 F,2>E,2 .E,2.E,2 | 
[V:1] z4(3z2 ^F2E2 (3A2B2A2^c4 | 
[V:2] (3z2 B,2A,2E4-E4-(3E2B,2A,2 | 
[V:3] z16 | 
[V:4] z16 | 
[V:1] z8z2 B,2^C2D2 | 
[V:2] (3E2A,2^G,2E4(3z2 A,2G,2^G4 | 
[V:3] d4>>^c4.B4.B4 | 
[V:4] z8E,8 | 
[V:1] D4^C2B,2A,4B,2C2 | 
[V:2] (3z2 B,2A,2E4(3z2 B,2A,2E4 | 
[V:3] d4^c2B2A4B2d2 | 
[V:4] A,,8^F,4^G,2A,2 | 
[V:1] B,4>^g4a6^d2 | 
[V:2] (3z2 ^F2E2e4(3z2 e2^d2 (3^f2d2A2 | 
[V:3] B4>^G4A6^D2 | 
[V:4] ^G,4B,,8B,4 | 
[V:1] z2 E2^G2B2 ^d2e2e2^f2 | 
[V:2] (3^G2E2^D2 (3^C2B,2A,2^G,4z4 | 
[V:3] E4z4(3z2 A,2^G,2 (3^F,2E,2D,2 | 
[V:4] E,4z4[K:clef=tenor]^D2E2 E2^F2 | 
[V:1] =g4>>^f4.^e4.e4 | 
[V:2] (3z2 B,2A,2A4(3z2 B,2A,2A4 | 
[V:3] ^C,4(3z2 B,2A,2C,4(3z2 B,2A,2 | 
[V:4] =G4>>^F4.^E4.E4 | 
[V:1] g4^f2=e2=d4e2f2 | 
[V:2] (3z2 B,2A,2A4(3z2 B,2A,2A4 | 
[V:3] D,4(3z2 B,2A,2^F4(3z2 B,2A,2 | 
[V:4] G4^F2=E2=D4E2F2 | 
[V:1] e4>^c4d6^G2 | 
[V:2] (3z2 B,2A,2E4(3z2 A,2^G,2E4 | 
[V:3] [E,4^C4](3z2 B,2A,2E,4(3z2 C2B,2 | 
[V:4] E4>^C4D6^G,2 | 
[V:1] e4>c4d4d'2^g2 | 
[V:2] (3z2 B,2A,2E4(3z2 A,2^G,2E4 | 
[V:3] E,4(3z2 B,2A,2E,4(3z2 =C2B,2 | 
[V:4] E4>=C4D6E2 | 
[V:1] b4a2>b2c'4b3a | 
[V:2] z4z2 dA dAdA dAdA | 
[V:3] =F,4z4z8 | 
[V:4] =F16 | 
[V:1] a4^g8=f3e | 
[V:2] z4z2 B,^G, B,G,B,G, B,G,B,G, | 
[V:3] E,16 | 
[V:4] [K:clef=bass]z16 | 
[V:1] e4b2>c'2d'4c'3b | 
[V:2] ^G16 | 
[V:3] z4z2 B,^G, B,G,B,G, B,G,B,G, | 
[V:4] z16 | 
[V:1] d'4c'2>d'2e'4d'3c' | 
[V:2] z4z2 cA cAcA cAcA | 
[V:3] z4z2 EC ECEC ECEC | 
[V:4] A,,16 | 
[V:1] b2>^g2 abab .c'2.c'2 baba | 
[V:2] cCAC ACAC ACAC ACAC | 
[V:3] AA,CA, CA,CA, CA,CA, CA,CA, | 
[V:4] .F,,2F,2E,2F,2 E,2F,2.F2.F,2 | 
[V:1] a4^g8f^dfe | 
[V:2] ACAC B^GBG BGBG BGBG | 
[V:3] CA,CA, ^GB,GB, GB,GB, GB,GB, | 
[V:4] .E,,2E,2^D,2E,2 D,2E,2.E2.E,2 | 
[V:1] .e2.e2 f^dfe .e2.e2 =d'ed'b | 
[V:2] B^GBG BGBG BGBG BGBG | 
[V:3] ^GB,GB, GB,GB, GB,GB, GB,GB, | 
[V:4] .E,,2E,2^D,2E,2 D,2E,2.E2.E,2 | 
[V:1] d'4c'8d'ed'b | 
[V:2] cEcE cEcE cEcE B^GBG | 
[V:3] ACAC ACAC ACAC ^GB,GD | 
[V:4] A,,2A,2^G,2A,2 G,2A,2.E2.E,2 | 
[V:1] d'4c'4-c'2e2 e'^d'=d'b | 
[V:2] cEcE cEcE cEcE B^GBG | 
[V:3] ECEC ECEC ECEC ^GB,GD | 
[V:4] .A,,2A,2^G,2A,2 G,2A,2.E,2.E2 | 
[V:1] d'4>>c'4b7a | 
[V:2] A8z8 | 
[V:3] [F,8A,8]FF,FF, FF,FF, | 
[V:4] .F,,2F,2E,2F,2 .F2F,2E,2F,2 | 
[V:1] c'4>>b4a7^g | 
[V:2] fFfF fFfFz8 | 
[V:3] z8EE,EE, EE,EE, | 
[V:4] .D,,2D,2^C,2D,2 .E2D,2^D,2E,2 | 
[V:1] g4>>e4f7d | 
[V:2] _B,=G,A,G, A,G,A,G, FA,FA, FA,FA, | 
[V:3] =G,E,G,E, G,E,G,E, A,F,A,F, A,F,A,F, | 
[V:4] .^C,,2^C,2A,,2C,2 .D2D,2C,2D,2 | 
[V:1] c4>>e4B7e | 
[V:2] ACAC ACAC ^G=B,GB, GB,GB, | 
[V:3] CA,CA, CA,CA, B,^G,B,G, B,G,B,G, | 
[V:4] .E,,2E,2^D,2E,2 .E2E,2D,2E,2 | 
[V:1] _B4>>g4D7f | 
[V:2] _B,=G,A,G, A,G,A,G, FA,FA, FA,FA, | 
[V:3] =G,E,G,E, G,E,G,E, A,F,A,F, A,F,A,F, | 
[V:4] .^C,,2^C,2A,,2C,2 D2D,2C,2D,2 | 
[V:1] c4>>e'4g'7f' | 
[V:2] ACAC cAcA cAcA =B^GBG | 
[V:3] CA,CA, ACAC ACAC ^GB,GB, | 
[V:4] .E,,2E,2^D,2E,2 .E2E,2D,2E,2 | 
[V:1] f'16 | 
[V:2] f16 | 
[V:3] z4c2>d2e4d3c | 
[V:4] [K:clef=tenor]z4A2>B2c4B3A | 
[V:1] e'16- | 
[V:2] e16- | 
[V:3] c4B2>c2d4c3B | 
[V:4] A4^G2>A2B4A3G | 
[V:1] e'2^g2a2b2 (3d'2c'2b2 (3b2c'2a2 | 
[V:2] e12^d4- | 
[V:3] A16- | 
[V:4] F16- | 
[V:1] a4^g8=g4- | 
[V:2] d4e12- | 
[V:3] A4B8_B4- | 
[V:4] F4E8[K:clef=bass]^C4- | 
[V:1] g4^f8=f4- | 
[V:2] e4=d12- | 
[V:3] B4A8_A4- | 
[V:4] C4D8B,4- | 
[V:1] f4<e4-e2d6- | 
[V:2] d4<c4-c2B6- | 
[V:3] A4<G4-G2F6- | 
[V:4] B,4<C4C,2D,6 | 
[V:1] d4<c4c2B6 | 
[V:2] B4<A4-A2^G6 | 
[V:3] F4<E4-E2D6 | 
[V:4] D,,4<E,,4-E,,8 | 
[V:1] ^G,16 | 
[V:2] z16 | 
[V:3] F,E,F,E, F,E,F,E, F,E,F,E, F,E,F,E, | 
[V:4] ^D,,E,,D,,E,, D,,E,,D,,E,, D,,E,,D,,E,, D,,E,,D,,E,, | 
[V:1] b16 | 
[V:2] ^G16 | 
[V:3] F,E,F,E, F,E,F,E, F,E,F,E, F,E,F,E, | 
[V:4] ^D,,E,,D,,E,, D,,E,,D,,E,, D,,E,,D,,E,, D,,E,,D,,E,, | 
[V:1] d'16 | 
[V:2] B^GBG BGBG BGBG BGBG | 
[V:3] F,E,F,E, F,E,F,E, F,E,F,E, F,E,F,E, | 
[V:4] ^D,,E,,D,,E,, D,,E,,D,,E,, D,,E,,D,,E,, D,,E,,D,,E,, | 
[V:1] fefe fefe fefe fefe | 
[V:2] [B16^g16] | 
[V:3] ^GB,GB, GB,GB, GB,GB, GB,GB, | 
[V:4] ^D,,E,,D,,E,, D,,E,,D,,E,, D,,E,,D,,E,, D,,E,,D,,E,, | 
[V:1] BAcA _BA^cA BAdA =BAdA | 
[V:2] .[A4a4].[A4a4].[A4a4].[A4a4] | 
[V:3] .A,4.[=G,4A,4].[^F,4A,4].[=F,4A,4] | 
[V:4] .A,,4.=G,,4.^F,,4.=F,,4 | 
[V:1] BAeA BAaA d=cac cB^gB | 
[V:2] a2>b2c'8b4 | 
[V:3] .[E,4A,4]E8^G2 z2 | 
[V:4] .E,,4.E,,4.E,4.E,,4 | 
[V:1] _B,A,^CA, B,A,CA, B,A,DA, =B,A,DA, | 
[V:2] .[A4a4].[A4a4].[A4a4].[A4a4] | 
[V:3] .A,4.[=G,4A,4].[^F,4A,4].[=F,4A,4] | 
[V:4] .A,,4.=G,,4.^F,,4.=F,,4 | 
[V:1] B,A,AA, B,A,AA, D=CcC FEeE | 
[V:2] a2>b2c'8b4 | 
[V:3] .[E,4A,4]E8^G4 | 
[V:4] .E,,4.E,,4E,4.E4 | 
[V:1] e e e e e e e e e e e e e e ^ge | 
[V:2] .[c4a4]z4.[B4b4]z4 | 
[V:3] .[E4A4]z4.^G4z4 | 
[V:4] .A,4z4E,4z4 | 
[V:1] e e e e e e ae e e e e e e e'^g | 
[V:2] .[c4c'4]z4.e'4z4 | 
[V:3] .A4z4.[^G4B4]z4 | 
[V:4] .A,4z4E,4z4 | 
[V:1] .[E4c4a4]z4!fermata!z8 |]  
[V:2] .[C4E4A4]z4!fermata!z8 |]  
[V:3] .A,4z4!fermata!z8 |]  
[V:4] .A,,4z4!fermata!z8 |]  


